X:23
T:Charlie O'Neill's
T:Bluestack Highland, The
R:highland
Z:id:hn-hf-23
M:C|
L:1/8
K:Ador
eAef eAef | gfgd B<GGd | eAef eAef |1 gedB A2gf :|2 gedB A2AB ||
|: cBAB ged2 | BGGD GBd2 |1 cBAB gedA | BGdB A2AB :|2 (3bc'b g2 (3aba fa | gbaf g2gf || 
<end>
<start>
